X:1
T:Sonata n. 16 in C Major
T:Sonata n. 16 in C Major
T:K 545
T:W. A. Mozart
C:W. A. Mozart
%%score { 1 | 2 }
L:1/8
M:4/4
K:C
V:1 treble nm="Piano" snm="Pno."
V:2 treble 
V:1
!mp! (c4 e2 g2) | !>!B3 (c/d/) c2 z2 | (!>!a4 g2 c'2) | (g2 Tfe/f/ e2) z2 | %4
 (AB/c/ d/e/f/g/ a/g/f/e/ d/c/B/A/) | (GA/B/ c/d/e/f/ g/f/e/d/ c/B/A/G/) | %6
 (FG/A/ B/c/d/e/ f/e/d/c/ B/A/G/F/) | (EF/G/ A/B/c/d/ e/d/c/B/ A/G/F/E/) | %8
!p! (DE/F/ G/A/B/^c/!<(! d/A/B/c/ d/e/f/g/)!<)! | (a/b/c'/b/ a/g/f/e/ f/g/a/g/ f/e/d/c/) | %10
!f! (!>!Bg).e.c (!>!dg).ec | .d2 .[Bdg]2 G2 z2 | z8 | (d'b) (g3 a/b/ ag) | (Tg>^f f2) z4 | %15
 (d'b) (g3 a/b/ ag) | (Tg>^f f2) z4 |!mf! d'2 z/ (d'/b/g/ e2) z/ (e/g/e/) | %18
 c'2 z/!>(! (c'/a/^f/ d2) z/ (d/f/d/)!>)! |!p! b2 z/ (b/g/e/ c2) z/ (c/e/c/) | %20
!<(! a2 z/ (a/^f/d/) B2 z/ (g/d/B/)!<)! | A4{/B} c2{/^d} e2 |{/^g} a3 (b/4a/4g/4a/4 c'a)(c'a) | %23
 (bg) (d'4 c'/b/a/g/ |!<(! !trill(!Ta8){ga}!<)! | g2 (g/d/g/b/ !>!d'/b/g/b/ !>!c'/a/^f/a/) | %26
 g2 (G/D/G/B/ !>!d/B/G/B/ !>!c/A/^F/A/) | G2!mp! !>!.[db]2 [Bg]2 z2 :: %28
 !>!G2 (g/d/g/_b/ !>!d'/b/g/b/ !>!c'/a/^f/a/) | g2!mp! (G/D/G/_B/ !>!d/B/G/B/ !>!c/A/^F/A/) | %30
 G2 z2 z/!<(! (g/_b/a/ g/f/e/d/!<)! | ^c2) z2 z/ (^c'/!>(!e'/d'/ c'/_b/a/g/!>)! | %32
 f2) (d/A/d/f/ !>!a/f/d/f/ !>!g/e/^c/e/ | d2) (D/A,/D/F/ !>!A/F/D/F/ !>!G/E/^C/E/) | %34
 z/!mf! (D/E/F/ G/A/B/^c/ d2) z2 | z/ (B/c/d/ e/^f/^g/a/ b2) z2 | z/ (a/e'/d'/ c'/b/a/g/ f2) z2 | %37
 z/ (g/d'/c'/ b/a/g/f/ e2) z2 | z/ (f/c'/b/ a/g/f/e/ d2) z2 | z/ (e/b/a/ ^g/f/e/d/ c2) z2 | %40
 z/ (_B/d/c/ B/A/G/F/ E/F/G/A/ B/c/d/e/ |!p! f4 a2 c'2) |!<(! (!>!e3 f/g/ f2) z2!<)! | %43
!mf! (d'4 c'2 f'2) | (c'2 T_ba/b/ a2) z2 | (de/f/ g/a/_b/c'/ d'/c'/b/a/ g/f/e/d/) | %46
 (cd/e/ f/g/a/_b/ c'/b/a/g/ f/e/d/c/) | (_Bc/d/ e/f/g/a/ _b/a/g/f/ e/d/c/B/) | %48
 (A_B/c/ d/e/f/g/ a/g/f/e/ d/c/B/A/) | a2 z2 z2 .[ca]2 | [cg]2 z2 z2 .[cg]2 | %51
"_cresc." [cf]2 z2 z2 .[Bf]2 | [ce]2 z2 z2 .[ce]2 | (d/D/E/F/ G/A/B/^c/ d/A/B/c/ d/e/f/g/) | %54
 (a/b/c'/b/ a/g/f/e/ f/g/a/g/ f/e/d/c/) | (!>!Bg).e.c (!>!dg).e.c | .d2 .[Bdg]2 G2 z2 | z8 | %58
 (ge c3) (d/e/ dc | Tc>B B2) z4 | (ge c3) (d/e/ dc | Tc>B B2) z4 | g2 z/ (g/e/c/ A2) z/ (A/c/A/ | %63
 f2) z/ (f/d/B/ G2) z/!f! (g/b/g/ | e'2) z/ (e'/c'/a/ f2) z/ (f/a/f/ | %65
 d'2) z/ (d'/b/g/ e2) z/!>(! (c'/g/e/!>)! |!p! d4){/^c} .d2{/c} .d2 | a4{/^g} .a2{/g} .a2 | %68
!mf! (ga/b/ c'/d'/e'/d'/ c'/b/a/g/ f/e/d/c/) | !trill(!Td8{cd} | %70
 c2!mp! (c/G/c/e/ !>!g/e/c/e/ !>!f/d/B/d/) | c2 (C/G,/C/E/ !>!G/E/C/E/ !>!F/D/B,/D/) | %72
 C2!ff! [egc']2 c2 z2 :| %73
V:2
 CGEG CGEG | DGFG CGEG | CAFA CGEG | B,GDG CGEG | F2 z2 z2[K:bass] .[F,C]2 | [E,C]2 z2 z2 .[E,C]2 | %6
 [D,C]2 z2 z2 .[D,B,]2 | [C,C]2 z2 z2 .[C,E,]2 | [F,A,]8 | F,3 G, A,3 ^F, | %10
 G,,/B,,/D,/G,/ G,,/C,/E,/G,/ G,,/B,,/D,/G,/ G,,/C,/E,/G,/ | .G,,2 .G,2 G,,2 z2 | %12
!mp! !>!^C/D/C/D/ C/D/C/D/ !>!=C/D/C/D/ C/D/C/D/ | B,/D/B,/D/ B,/D/B,/D/ B,/D/B,/D/ B,/D/B,/D/ | %14
 C/D/B,/D/ A,/D/B,/D/ C/D/B,/D/ C/D/A,/D/ | B,/D/B,/D/ B,/D/B,/D/ B,/D/B,/D/ B,/D/B,/D/ | %16
 C/D/B,/D/ A,/D/B,/D/ C/D/B,/D/ C/D/A,/D/ |[K:treble] z/ (B,/D/G/ B2) z/ (C/E/G/ c2) | %18
 z/ (A,/C/^F/ A2) z/ (B,/D/F/ B2) | z/ (G,/B,/E/ G2) z/ (A,/C/E/ A2) | %20
 z/ (^F,/A,/D/ ^F2) z/ (G,/B,/D/ G2) | .[CE].[CE].[CE].[CE] .[CE].[CE].[CE].[CE] | %22
 .[CE].[CE].[CE].[CE] .[CE].[CE].[CE].[CE] | D/B/G/B/ D/B/G/B/ D/B/G/B/ D/B/G/B/ | %24
 D/c/^F/c/ D/c/F/c/ D/c/F/c/ D/c/F/c/ | [GB]2 z2 z2 .[DAc]2 | [GB]2 z2 z2[K:bass] .[D,A,C]2 | %27
 [G,B,]2 .[G,,G,]2 [G,,G,]2 z2 :: !>![G,,G,]2 z2 z2[K:treble] .[DAc]2 | %29
 [G_B]2 z2 z2[K:bass] .[D,A,C]2 | z/ (G,,/A,,/_B,,/ C,/D,/E,/^F,/ G,2) z2 | %31
 z/ (A,,/B,,/^C,/ D,/E,/^F,/^G,/ A,2) z2 | [D,,D,]2 z2 z2[K:treble] .[A,EG]2 | %33
 [DF]2 z2 z2[K:bass] .[A,,E,G,]2 | [D,F,]2 z2 z/ (D/F/E/ D/C/B,/A,/ | %35
 ^G,2) z2 z/ (G,/B,/A,/ G,/F,/E,/D,/ | C,2) z2 z/[K:treble] (D/A/G/ F/E/D/C/ | %37
 B,2) z2 z/ (C/G/F/ E/D/C/B,/ | A,2) z2 z/ (B,/F/E/ D/C/B,/A,/ | %39
 ^G,2) z2 z/"_dim." (A,/C/B,/ A,/=G,/F,/E,/ | D,4) [C,G,_B,]4 |[K:treble] FcAc FcAc | Gc_Bc FcAc | %43
 Fd_Bd FcAc | EcGc FcAc | _B2 z2 z2 .[_B,F]2 | [A,F]2 z2 z2 .[A,F]2 | [G,F]2 z2 z2 .[G,E]2 | %48
 [F,F]2 z2 z4 |[K:bass] (F,G,/A,/ _B,/C/D/E/ F/E/D/C/ B,/A,/G,/F,/) | %50
 (E,F,/G,/ A,/B,/C/D/ E/D/C/B,/ A,/G,/F,/E,/) | (D,E,/F,/ G,/A,/B,/C/ D/C/B,/A,/ G,/F,/E,/D,/) | %52
 (C,D,/E,/ F,/G,/A,/B,/ C/B,/A,/G,/ F,/E,/D,/C,/) | [F,A,]8 | F,3 G, A,3 ^F, | %55
 G,,/B,,/D,/G,/ G,,/C,/E,/G,/ G,,/B,,/D,/G,/ G,,/C,/E,/G,/ | .G,,2 .G,2 G,,2 z2 | %57
[K:treble]!mp! !>!^F/G/F/G/ F/G/F/G/ !>!=F/G/F/G/ F/G/F/G/ | E/G/E/G/ E/G/E/G/ E/G/E/G/ E/G/E/G/ | %59
 F/G/E/G/ D/G/E/G/ F/G/E/G/ F/G/D/G/ | E/G/E/G/ E/G/E/G/ E/G/E/G/ E/G/E/G/ | %61
 F/G/E/G/ D/G/E/G/ F/G/E/G/ F/G/D/G/ |[K:bass] z/ (E,/G,/C/ E2) z/ (F,/A,/C/ F2) | %63
 z/ (D,/F,/B,/ D2) z/ (E,/G,/B,/ E2) |[K:treble] z/ (C/E/A/ c2) z/ (D/F/A/ d2) | %65
 z/ (B,/D/G/ B2) z/ (C/E/G/ c2) | z .[FA].[FA].[FA] .[FA].[FA].[FA].[FA] | %67
[K:bass] z .[^F,C_E].[F,CE].[F,CE] .[F,CE].[F,CE].[F,CE].[F,CE] | %68
 G,/E/C/E/ G,/E/C/E/ G,/E/C/E/ G,/E/C/E/ | G,/F/B,/F/ G,/F/B,/F/ G,/F/B,/F/ G,/F/B,/F/ | %70
[K:treble] [CE]2 z2 z2 .[G,DF]2 | [CE]2 z2 z2[K:bass] .[G,,D,F,]2 | [C,E,]2 [C,C]2 [C,,C,]2 z2 :| %73

